X:250
T: MAEGDLEIN FREI DU NICHT SO FRUEH
N: E0835A
O: Europa, Mitteleuropa, Deutschland, Westfalen
R: Hochzeits -, Ehestands - Lied
M: 4/4
L: 1/8
K: D
DF | A3FG2G2 | F4z2
FG | A3BB2G2 | F4z2
DE | F2F2F2EF | G2E2E2
D2 | F2F2A2GF | G2E2E2z
A, | DEFGA2AB | AGFED2z
E | FEFGA2GF | E2E2D2

